X:55
T:Hun Haydn. LIT.055
M:2/4
Q:1/4=120
L:1/16
B:Wm. Litten MS, 1802
Z:Village Music Project 2017 Anne Wride
K:C
Gc | e2e2 dfdB | c2e2 g2ec | A2f2 a2fd | c4 B2Gc |
e2e2 dfdB | c2e2 g2ec | a2fd BcdB | c6 :|
|: gf | efde c2G2 | c2cd c2gf | efde c2d2 | c6 gf |
efde c2G2 | c2e2 g2ec | a2g2 fedc | d2B2 c2 :|

